input math
prologues:=3;
outputtemplate:=("%j" & ".mps");
verbatimtex
%&latex
\documentclass{minimal}
\begin{document}
etex
%% scale rule
numeric u; u := 6cm;
beginfig(0);
%% put your plot scripts here
endfig;
end;
